X:1
T:Title
%%score { ( 1 3 ) | ( 2 4 ) }
L:1/8
Q:1/4=100
M:6/8
K:Ab
V:1 treble nm="Grand Piano"
V:3 treble 
V:2 bass 
V:4 bass 
V:1
 [CE][CE][CE] [_C=D]2 [=CE] | [DF]3 [CE]3 | GGA B3 | [CA][CA][DB] [Ec]3 | %4
w: Maurice~A.~Clifton * * * *||||
 [CE][CE][CE] [_C=D]2 [=CE] | [DF]3 [CE]3 | GGG B2 c | [CA]6 | [Ec]3 [CA]2 [EA] | %9
w: |||||
 [FB][FA][DF] [CE]3 | GGA B3 | [CA][CA][DB] [Ec]3 | e3 c2 c |[M:15/16] [FB][FA]/-[FA]/FA3/2- A3 | %14
w: |||||
[M:3/4] EE E B2 c | A6 |] %16
w: ||
V:2
 [A,,A,][A,,A,][A,,A,] [A,,A,]2 [A,,A,] | [A,,A,]3 [A,,A,]3 | [E,B,D][E,B,D][E,A,C] [E,G,D]3 | %3
 [A,,A,][A,,A,][A,,A,] [A,,A,]3 | [A,,A,][A,,A,][A,,A,] [A,,A,]2 [A,,A,] | [A,,A,]3 [A,,A,]3 | %6
 [E,B,D][E,B,D][E,B,D] [E,G,D]2 [E,G,E] | [A,,A,]6 | [A,,A,]3 [A,,A,]2 [C,A,] | %9
 [D,A,][D,A,][D,A,] [A,,A,]3 | [E,B,D][E,B,D][E,A,C] [E,G,D]3 | [A,,A,][A,,A,][A,,A,] [A,,A,]3 | %12
 [A,CA]3 [A,EA]2 [A,EA] |[M:15/16][K:bass] [D,D][D,D]/-[D,D]/[D,A,D][D,F,D]3/2- [D,F,D]3 | %14
[M:3/4] [E,A,C][E,A,C] [E,A,C] [E,G,D]2 [E,G,E] | z2 F, E,3 |] %16
V:3
 x6 | x6 | x6 | x6 | x6 | x6 | x6 | x6 | x6 | x6 | x6 | x6 | x6 |[M:15/16] x15/2 |[M:3/4] x6 | %15
 [A,C]2 D C3 |] %16
V:4
 x6 | x6 | x6 | x6 | x6 | x6 | x6 | x6 | x6 | x6 | x6 | x6 | x6 |[M:15/16][K:bass] x15/2 | %14
[M:3/4] x6 | A,,6 |] %16

